Yaru++/actions/16/stroke-cap-square.svg

<svg viewBox="0 0 24 24" xmlns="http://www.w3.org/2000/svg"><path d="m7 4v1 15h1 3v-1-11h2v12h1 2 1v-13-3h-6-3zm1 1h3 5v3 11h-2v-12h-3-1v1 11h-2z" fill="#808080"/></svg>

<svg xmlns="http://www.w3.org/2000/svg" viewBox="0 0 24 24">
 <defs>
  <style id="current-color-scheme" type="text/css">
   .ColorScheme-Text { color:#808080; }
  </style>
 </defs>
 <path style="fill:currentColor" class="ColorScheme-Text" d="M 7 4 L 7 5 L 7 20 L 8 20 L 11 20 L 11 19 L 11 8 L 13 8 L 13 20 L 14 20 L 16 20 L 17 20 L 17 7 L 17 4 L 11 4 L 8 4 L 7 4 z M 8 5 L 11 5 L 16 5 L 16 8 L 16 19 L 14 19 L 14 7 L 11 7 L 10 7 L 10 8 L 10 19 L 8 19 L 8 5 z"/>
</svg>
